X: 362
M: C|
L: 1/8
K: G
V: 1
(B/c/) |\
dgfe d2BG | cABG (GF)ED | dgfe d2BG | ABcA G2G :|
c |\
V: 2 clef=bass middle=d
z | g2g2 b2g2 | a2g2 d2d2 | g2g2 b2g2 | d2D2 G2G :|
z | g2b2 a2f2 | c2^c2 d2d2 | g2g2 d2d2 | A2d2 G2G2 |
    g2b2 a2f2 | e2c2 B2g2 | e2d2 c2^c2 | d2D2 G2G |]


